Yaru++/actions/symbolic/go-home-symbolic.svg

<svg height="16" width="16" xmlns="http://www.w3.org/2000/svg">
  <g fill="#808080">
    <path d="m14 5v-2h-2.002z"/>
    <path d="m2 7v8h9v-1h-8v-7.667zm11.002-1-.002 9h1v-8z"/>
    <path d="m8 8.986a8.47 8.47 0 0 1 .607-.122 5.24 5.24 0 0 1 .872-.064c.295 0 .54.043.735.129.195.08.35.197.465.35.119.147.202.326.25.535.047.21.071.44.071.693v3.693h-3z"/>
    <path d="m8 .293-7.854 7.853.708.708 7.146-7.147 7.146 7.147.708-.708z" fill-rule="evenodd"/>
  </g>
</svg>

<svg height="16" width="16" xmlns="http://www.w3.org/2000/svg">
    <g fill="gray">
        <path color="#000" d="M14 5V3h-2.002z" overflow="visible" style="marker:none"/>
        <path d="M2 7v8h9v-1H3V6.333zm11.002-1L13 15h1V7z" font-family="Ubuntu" font-size="15" font-weight="400" letter-spacing="0" style="line-height:125%;-inkscape-font-specification:Ubuntu;text-align:center" text-anchor="middle" word-spacing="0"/>
        <path d="M8 8.986a8.47 8.47 0 0 1 .607-.122 5.24 5.24 0 0 1 .872-.064c.295 0 .54.043.735.129.195.08.35.197.465.35.119.147.202.326.25.535.047.21.071.44.071.693V14.2H8z" font-family="Ubuntu" font-weight="400" letter-spacing="0" style="line-height:125%;-inkscape-font-specification:Ubuntu;text-align:end" text-anchor="end" word-spacing="0"/>
        <path color="#000" d="M8 .293L.146 8.146l.708.708L8 1.707l7.146 7.147.708-.708z" fill-rule="evenodd" font-family="sans-serif" font-weight="400" overflow="visible" style="line-height:normal;font-variant-ligatures:normal;font-variant-position:normal;font-variant-caps:normal;font-variant-numeric:normal;font-variant-alternates:normal;font-feature-settings:normal;text-indent:0;text-align:start;text-decoration-line:none;text-decoration-style:solid;text-decoration-color:#000;text-transform:none;text-orientation:mixed;shape-padding:0;isolation:auto;mix-blend-mode:normal" white-space="normal"/>
    </g>
</svg>
